src/images/svg/icons/badge.svg

<svg fill='none' xmlns='http://www.w3.org/2000/svg' viewBox='0 0 48 48'><path d='M28 27h8v-3h-8v3Zm0 6h8v-3h-8v3Zm12-19H30V8c0-2.2-1.8-4-4-4h-4c-2.2 0-4 1.8-4 4v6H8c-2.2 0-4 1.8-4 4v22c0 2.2 1.8 4 4 4h32c2.2 0 4-1.8 4-4V18c0-2.2-1.8-4-4-4ZM22 8h4v10h-4V8Zm18 32H8V18h10c0 2.2 1.8 4 4 4h4c2.2 0 4-1.8 4-4h10v22ZM18 30c1.66 0 3-1.34 3-3s-1.34-3-3-3-3 1.34-3 3 1.34 3 3 3Zm4.16 2.36c-1.28-.56-2.68-.86-4.16-.86s-2.88.3-4.16.86A3.011 3.011 0 0 0 12 35.14V36h12v-.86c0-1.22-.72-2.3-1.84-2.78Z' fill='#00A3D7'/><path opacity='.3' d='M26 22h-4c-2.2 0-4-1.8-4-4H8v22h32V18H30c0 2.2-1.8 4-4 4Zm-8 2c1.66 0 3 1.34 3 3s-1.34 3-3 3-3-1.34-3-3 1.34-3 3-3Zm6 12H12v-.86c0-1.2.72-2.3 1.84-2.78 1.28-.56 2.68-.86 4.16-.86s2.88.3 4.16.86c1.1.48 1.84 1.56 1.84 2.78V36Zm12-3h-8v-3h8v3Zm0-6h-8v-3h8v3Z' fill='#00A3D7'/></svg>

<svg width="48" height="48" viewBox="0 0 48 48" fill="none" xmlns="http://www.w3.org/2000/svg">
<path d="M28 27H36V24H28V27ZM28 33H36V30H28V33ZM40 14H30V8C30 5.8 28.2 4 26 4H22C19.8 4 18 5.8 18 8V14H8C5.8 14 4 15.8 4 18V40C4 42.2 5.8 44 8 44H40C42.2 44 44 42.2 44 40V18C44 15.8 42.2 14 40 14ZM22 8H26V18H22V8ZM40 40H8V18H18C18 20.2 19.8 22 22 22H26C28.2 22 30 20.2 30 18H40V40ZM18 30C19.66 30 21 28.66 21 27C21 25.34 19.66 24 18 24C16.34 24 15 25.34 15 27C15 28.66 16.34 30 18 30ZM22.16 32.36C20.88 31.8 19.48 31.5 18 31.5C16.52 31.5 15.12 31.8 13.84 32.36C12.72 32.84 12 33.92 12 35.14V36H24V35.14C24 33.92 23.28 32.84 22.16 32.36Z" fill="#00A3D7"/>
<path opacity="0.3" d="M26 22H22C19.8 22 18 20.2 18 18H8V40H40V18H30C30 20.2 28.2 22 26 22ZM18 24C19.66 24 21 25.34 21 27C21 28.66 19.66 30 18 30C16.34 30 15 28.66 15 27C15 25.34 16.34 24 18 24ZM24 36H12V35.14C12 33.94 12.72 32.84 13.84 32.36C15.12 31.8 16.52 31.5 18 31.5C19.48 31.5 20.88 31.8 22.16 32.36C23.26 32.84 24 33.92 24 35.14V36ZM36 33H28V30H36V33ZM36 27H28V24H36V27Z" fill="#00A3D7"/>
</svg>
